micro_2/src/phone_w_map.svg

<svg xmlns="http://www.w3.org/2000/svg" xmlns:xlink="http://www.w3.org/1999/xlink" width="640" height="640"><defs><path d="M407.44 33.4l1.46.15 1.44.21 1.41.26 1.4.32 1.37.37 1.36.43 1.32.48 1.3.52 1.28.58 1.25.62 1.22.67 1.19.72 1.16.76 1.12.8 1.1.85 1.06.88 1.02.92.99.96.95 1 .91 1.03.87 1.07.84 1.1.79 1.13.74 1.16.7 1.19.66 1.22.61 1.24.57 1.27.51 1.3.47 1.31.41 1.34.37 1.36.31 1.37.26 1.4.2 1.41.14 1.43.09 1.44.03 1.45v373.25l-.03 1.45-.09 1.44-.14 1.43-.2 1.41-.26 1.39-.31 1.38-.37 1.36-.41 1.34-.47 1.31-.51 1.3-.57 1.27-.61 1.24-.66 1.22-.7 1.19-.74 1.16-.79 1.13-.84 1.1-.87 1.06-.91 1.04-.95.99-.99.96-1.02.93-1.06.88-1.1.85-1.12.8-1.16.76-1.19.71-1.22.67-1.25.63-1.28.57-1.3.53-1.32.48-1.36.42-1.37.38-1.4.32-1.41.26-1.44.21-1.46.15-1.47.09-1.49.03H235.52l-1.45-.03-1.44-.09-1.43-.14-1.41-.21-1.4-.25-1.37-.31-1.36-.37-1.34-.41-1.31-.47-1.3-.51-1.27-.57-1.24-.61-1.22-.66-1.19-.7-1.16-.75-1.13-.79-1.1-.83-1.07-.87-1.03-.91-1-.95-.96-.99-.92-1.03-.88-1.06-.85-1.09-.8-1.13-.76-1.16-.72-1.19-.67-1.21-.62-1.25-.58-1.28-.52-1.3-.48-1.33-.43-1.35-.37-1.37-.32-1.4-.26-1.42-.21-1.43-.15-1.46-.09-1.47-.03-1.49V69.12l.03-1.45.09-1.44.14-1.43.2-1.41.26-1.4.31-1.37.37-1.36.41-1.34.47-1.31.51-1.3.57-1.27.61-1.24.66-1.22.7-1.19.75-1.16.78-1.13.84-1.1.87-1.07.91-1.03.95-1 .99-.96 1.02-.92 1.06-.88 1.1-.85 1.13-.8 1.15-.76 1.19-.72 1.22-.67 1.25-.62 1.28-.58 1.3-.52 1.32-.48 1.36-.43 1.37-.37 1.4-.32 1.41-.26 1.44-.21 1.46-.15 1.47-.09 1.49-.03h168.96l1.49.03 1.47.09zm-90.12 386.61l-1.3.21-1.28.28-1.25.36-1.22.44-1.19.51-1.14.57-1.11.64-1.07.7-1.03.76-.97.82-.93.88-.87.92-.82.98-.76 1.02-.71 1.07-.63 1.11-.58 1.15-.5 1.18-.44 1.22-.36 1.25-.29 1.28-.2 1.31-.13 1.32-.04 1.35.04 1.35.13 1.33.2 1.31.29 1.28.36 1.25.44 1.22.5 1.18.58 1.15.63 1.11.71 1.07.76 1.02.82.98.87.92.93.88.97.82 1.03.76 1.07.7 1.11.64 1.14.57 1.19.51 1.22.43 1.25.37 1.28.28 1.3.21 1.33.13 1.35.04 1.35-.04 1.33-.12 1.3-.2 1.28-.27 1.25-.35 1.22-.42 1.19-.49 1.14-.55 1.11-.62 1.07-.68 1.03-.75.97-.8.93-.86.87-.91.82-.96.76-1.02.71-1.06.63-1.11.58-1.16.5-1.2.44-1.23.36-1.28.29-1.3.2-1.35.13-1.37.04-1.41-.04-1.35-.13-1.32-.2-1.31-.29-1.28-.36-1.25-.44-1.22-.5-1.18-.58-1.15-.63-1.11-.71-1.07-.76-1.02-.82-.98-.87-.92-.93-.88-.97-.82-1.03-.76-1.07-.7-1.11-.64-1.14-.57-1.19-.51-1.22-.44-1.25-.36-1.28-.28-1.3-.21-1.33-.13-1.35-.04-1.35.04-1.33.13zm-100.23-15.02h206.33V98.82H217.09v306.17zM280.3 61.45l-.27.01-.26.02-.26.04-.26.04-.25.06-.25.06-.24.07-.23.08-.23.09-.23.1-.22.1-.21.12-.21.12-.2.13-.19.14-.19.14-.18.15-.18.17-.16.16-.16.18-.16.18-.14.19-.14.19-.13.2-.12.21-.12.21-.1.22-.1.22-.09.24-.08.23-.07.24-.06.25-.06.25-.04.26-.03.26-.03.26-.01.27-.01.27.01.28.01.27.03.26.03.26.04.26.06.25.06.25.07.24.08.23.09.23.1.23.1.22.12.21.12.21.13.2.14.19.14.19.16.18.16.18.16.16.18.16.18.16.19.14.19.14.2.13.21.12.21.12.22.1.23.1.23.09.23.08.24.07.25.06.25.06.26.04.26.03.26.03.27.01.28.01h79.36l.27-.01.27-.01.26-.03.26-.03.26-.04.25-.06.25-.06.24-.07.23-.08.24-.09.22-.1.22-.1.21-.12.21-.12.2-.13.19-.14.19-.14.18-.16.18-.16.16-.16.17-.18.15-.18.14-.19.14-.19.13-.2.12-.21.12-.21.1-.22.1-.23.09-.23.08-.23.07-.24.06-.25.06-.25.04-.26.04-.26.02-.26.01-.27.01-.28-.01-.27-.01-.27-.02-.26-.04-.26-.04-.26-.06-.25-.06-.25-.07-.24-.08-.23-.09-.24-.1-.22-.1-.22-.12-.21-.12-.21-.13-.2-.14-.19-.14-.19-.15-.18-.17-.18-.16-.16-.18-.17-.18-.15-.19-.14-.19-.14-.2-.13-.21-.12-.21-.12-.22-.1-.22-.1-.24-.09-.23-.08-.24-.07-.25-.06-.25-.06-.26-.04-.26-.04-.26-.02-.27-.01-.27-.01h-79.36l-.28.01z" id="a"/><path d="M331.5 163.73l2.44.24 2.41.35 2.38.44 2.35.53 2.31.62 2.28.71 2.25.79 2.2.88 2.16.97 2.11 1.04 2.07 1.12 2.03 1.2 1.97 1.27 1.92 1.35 1.87 1.42 1.81 1.48 1.75 1.56 1.69 1.62 1.63 1.68 1.57 1.74 1.49 1.81 1.43 1.86 1.36 1.92 1.29 1.97 1.21 2.02 1.13 2.07 1.06 2.12.98 2.17.89 2.21.8 2.25.72 2.29.63 2.34.54 2.36.45 2.41.35 2.43.25 2.47.15 2.49.06 2.52-.12 2.59-.33 2.69-.53 2.79-.73 2.87-.91 2.95-1.09 3.01-1.24 3.07-1.39 3.13-1.53 3.16-1.65 3.2-1.77 3.22-1.88 3.24-1.96 3.24-2.04 3.24-2.11 3.23-2.17 3.21-2.22 3.19-2.24 3.14-2.28 3.1-2.28 3.05-2.28 2.98-2.27 2.91-2.25 2.82-2.22 2.74-2.16 2.64-2.12 2.54-2.04 2.41-1.96 2.3-1.87 2.16-1.77 2.02-1.66 1.86-1.53 1.71-1.39 1.54-1.24 1.36-1.08 1.18-.92.98-.73.78-.53.57-.33.35-.11.11-.11-.11-.33-.35-.54-.57-.73-.78-.91-.98-1.08-1.18-1.25-1.36-1.39-1.54-1.53-1.71-1.65-1.86-1.77-2.02-1.87-2.16-1.97-2.3-2.04-2.41-2.11-2.54-2.17-2.64-2.21-2.74-2.25-2.82-2.27-2.91-2.29-2.98-2.28-3.05-2.27-3.1-2.25-3.14-2.21-3.19-2.17-3.21-2.11-3.23-2.05-3.24-1.96-3.24-1.87-3.24-1.77-3.22-1.66-3.2-1.52-3.16-1.4-3.13-1.24-3.07-1.08-3.01-.91-2.95-.73-2.87-.54-2.79-.33-2.69-.11-2.59.05-2.52.15-2.49.25-2.47.34-2.43.44-2.41.53-2.36.62-2.34.71-2.29.8-2.25.88-2.21.96-2.17 1.04-2.12 1.13-2.07 1.19-2.02 1.28-1.97 1.34-1.92 1.42-1.86 1.49-1.81 1.55-1.74 1.62-1.68 1.68-1.62 1.75-1.56 1.8-1.48 1.86-1.42 1.92-1.35 1.97-1.27 2.02-1.2 2.07-1.12 2.12-1.04 2.17-.97 2.21-.88 2.25-.79 2.3-.71 2.33-.62 2.37-.53 2.4-.44 2.44-.35 2.46-.24 2.5-.15 2.52-.05 2.48.05 2.46.15zm-7.57 31.14l-1.29.14-1.28.2-1.25.25-1.24.3-1.21.36-1.2.4-1.17.45-1.14.5-1.12.55-1.1.59-1.06.63-1.04.68-1 .72-.98.76-.94.79-.9.84-.88.87-.83.91-.8.94-.76.97-.72 1.01-.67 1.04-.64 1.06-.59 1.09-.54 1.12-.5 1.15-.46 1.17-.4 1.19-.35 1.22-.3 1.23-.25 1.26-.2 1.27-.14 1.29-.09 1.31-.03 1.32.03 1.32.09 1.31.14 1.29.2 1.28.25 1.25.3 1.24.35 1.21.4 1.2.46 1.17.5 1.14.54 1.12.59 1.1.64 1.06.67 1.04.72 1 .76.98.8.94.83.9.88.88.9.83.94.8.98.76 1 .72 1.04.67 1.06.64 1.1.59 1.12.54 1.14.5 1.17.46 1.2.4 1.21.35 1.24.31 1.25.25 1.28.19 1.29.14 1.31.09 1.32.03 1.32-.03 1.31-.09 1.29-.14 1.27-.19 1.26-.25 1.23-.31 1.22-.35 1.19-.4 1.17-.46 1.15-.5 1.12-.54 1.09-.59 1.07-.64 1.03-.67 1.01-.72.97-.76.94-.8.91-.83.87-.88.84-.9.79-.94.76-.98.72-1 .68-1.04.63-1.06.59-1.1.55-1.12.5-1.14.45-1.17.4-1.2.36-1.21.3-1.24.25-1.25.2-1.28.14-1.29.08-1.31.03-1.32-.03-1.32-.08-1.31-.14-1.29-.2-1.27-.25-1.26-.3-1.23-.36-1.22-.4-1.19-.45-1.17-.5-1.15-.55-1.12-.59-1.09-.63-1.06-.68-1.04-.72-1.01-.76-.97-.79-.94-.84-.91-.87-.87-.91-.84-.94-.79-.97-.76-1.01-.72-1.03-.68-1.07-.63-1.09-.59-1.12-.55-1.15-.5-1.17-.45-1.19-.4-1.22-.36-1.23-.3-1.26-.25-1.27-.2-1.29-.14-1.31-.08-1.32-.03-1.32.03-1.31.08z" id="b"/></defs><use xlink:href="#a" fill="#000100"/><use xlink:href="#a" fill-opacity="0" stroke="#000" stroke-opacity="0"/><g><use xlink:href="#b" fill="#8a2a76"/><use xlink:href="#b" fill-opacity="0" stroke="#000" stroke-opacity="0"/></g></svg>

<?xml version="1.0" encoding="UTF-8" standalone="no"?>
<!DOCTYPE svg PUBLIC "-//W3C//DTD SVG 1.1//EN" "http://www.w3.org/Graphics/SVG/1.1/DTD/svg11.dtd">
<svg version="1.1" xmlns="http://www.w3.org/2000/svg" xmlns:xlink="http://www.w3.org/1999/xlink" preserveAspectRatio="xMidYMid meet" viewBox="0 0 640 640" width="640" height="640"><defs><path d="M407.44 33.4L408.9 33.55L410.34 33.76L411.75 34.02L413.15 34.34L414.52 34.71L415.88 35.14L417.2 35.62L418.5 36.14L419.78 36.72L421.03 37.34L422.25 38.01L423.44 38.73L424.6 39.49L425.72 40.29L426.82 41.14L427.88 42.02L428.9 42.94L429.89 43.9L430.84 44.9L431.75 45.93L432.62 47L433.46 48.1L434.25 49.23L434.99 50.39L435.69 51.58L436.35 52.8L436.96 54.04L437.53 55.31L438.04 56.61L438.51 57.92L438.92 59.26L439.29 60.62L439.6 61.99L439.86 63.39L440.06 64.8L440.2 66.23L440.29 67.67L440.32 69.12L440.32 442.37L440.29 443.82L440.2 445.26L440.06 446.69L439.86 448.1L439.6 449.49L439.29 450.87L438.92 452.23L438.51 453.57L438.04 454.88L437.53 456.18L436.96 457.45L436.35 458.69L435.69 459.91L434.99 461.1L434.25 462.26L433.46 463.39L432.62 464.49L431.75 465.55L430.84 466.59L429.89 467.58L428.9 468.54L427.88 469.47L426.82 470.35L425.72 471.2L424.6 472L423.44 472.76L422.25 473.47L421.03 474.14L419.78 474.77L418.5 475.34L417.2 475.87L415.88 476.35L414.52 476.77L413.15 477.15L411.75 477.47L410.34 477.73L408.9 477.94L407.44 478.09L405.97 478.18L404.48 478.21L235.52 478.21L234.07 478.18L232.63 478.09L231.2 477.95L229.79 477.74L228.39 477.49L227.02 477.18L225.66 476.81L224.32 476.4L223.01 475.93L221.71 475.42L220.44 474.85L219.2 474.24L217.98 473.58L216.79 472.88L215.63 472.13L214.5 471.34L213.4 470.51L212.33 469.64L211.3 468.73L210.3 467.78L209.34 466.79L208.42 465.76L207.54 464.7L206.69 463.61L205.89 462.48L205.13 461.32L204.41 460.13L203.74 458.92L203.12 457.67L202.54 456.39L202.02 455.09L201.54 453.76L201.11 452.41L200.74 451.04L200.42 449.64L200.16 448.22L199.95 446.79L199.8 445.33L199.71 443.86L199.68 442.37L199.68 69.12L199.71 67.67L199.8 66.23L199.94 64.8L200.14 63.39L200.4 61.99L200.71 60.62L201.08 59.26L201.49 57.92L201.96 56.61L202.47 55.31L203.04 54.04L203.65 52.8L204.31 51.58L205.01 50.39L205.76 49.23L206.54 48.1L207.38 47L208.25 45.93L209.16 44.9L210.11 43.9L211.1 42.94L212.12 42.02L213.18 41.14L214.28 40.29L215.41 39.49L216.56 38.73L217.75 38.01L218.97 37.34L220.22 36.72L221.5 36.14L222.8 35.62L224.12 35.14L225.48 34.71L226.85 34.34L228.25 34.02L229.66 33.76L231.1 33.55L232.56 33.4L234.03 33.31L235.52 33.28L404.48 33.28L405.97 33.31L407.44 33.4ZM317.32 420.01L316.02 420.22L314.74 420.5L313.49 420.86L312.27 421.3L311.08 421.81L309.94 422.38L308.83 423.02L307.76 423.72L306.73 424.48L305.76 425.3L304.83 426.18L303.96 427.1L303.14 428.08L302.38 429.1L301.67 430.17L301.04 431.28L300.46 432.43L299.96 433.61L299.52 434.83L299.16 436.08L298.87 437.36L298.67 438.67L298.54 439.99L298.5 441.34L298.54 442.69L298.67 444.02L298.87 445.33L299.16 446.61L299.52 447.86L299.96 449.08L300.46 450.26L301.04 451.41L301.67 452.52L302.38 453.59L303.14 454.61L303.96 455.59L304.83 456.51L305.76 457.39L306.73 458.21L307.76 458.97L308.83 459.67L309.94 460.31L311.08 460.88L312.27 461.39L313.49 461.82L314.74 462.19L316.02 462.47L317.32 462.68L318.65 462.81L320 462.85L321.35 462.81L322.68 462.69L323.98 462.49L325.26 462.22L326.51 461.87L327.73 461.45L328.92 460.96L330.06 460.41L331.17 459.79L332.24 459.11L333.27 458.36L334.24 457.56L335.17 456.7L336.04 455.79L336.86 454.83L337.62 453.81L338.33 452.75L338.96 451.64L339.54 450.48L340.04 449.28L340.48 448.05L340.84 446.77L341.13 445.47L341.33 444.12L341.46 442.75L341.5 441.34L341.46 439.99L341.33 438.67L341.13 437.36L340.84 436.08L340.48 434.83L340.04 433.61L339.54 432.43L338.96 431.28L338.33 430.17L337.62 429.1L336.86 428.08L336.04 427.1L335.17 426.18L334.24 425.3L333.27 424.48L332.24 423.72L331.17 423.02L330.06 422.38L328.92 421.81L327.73 421.3L326.51 420.86L325.26 420.5L323.98 420.22L322.68 420.01L321.35 419.88L320 419.84L318.65 419.88L317.32 420.01ZM217.09 404.99L423.42 404.99L423.42 98.82L217.09 98.82L217.09 404.99ZM280.3 61.45L280.03 61.46L279.77 61.48L279.51 61.52L279.25 61.56L279 61.62L278.75 61.68L278.51 61.75L278.28 61.83L278.05 61.92L277.82 62.02L277.6 62.12L277.39 62.24L277.18 62.36L276.98 62.49L276.79 62.63L276.6 62.77L276.42 62.92L276.24 63.09L276.08 63.25L275.92 63.43L275.76 63.61L275.62 63.8L275.48 63.99L275.35 64.19L275.23 64.4L275.11 64.61L275.01 64.83L274.91 65.05L274.82 65.29L274.74 65.52L274.67 65.76L274.61 66.01L274.55 66.26L274.51 66.52L274.48 66.78L274.45 67.04L274.44 67.31L274.43 67.58L274.44 67.86L274.45 68.13L274.48 68.39L274.51 68.65L274.55 68.91L274.61 69.16L274.67 69.41L274.74 69.65L274.82 69.88L274.91 70.11L275.01 70.34L275.11 70.56L275.23 70.77L275.35 70.98L275.48 71.18L275.62 71.37L275.76 71.56L275.92 71.74L276.08 71.92L276.24 72.08L276.42 72.24L276.6 72.4L276.79 72.54L276.98 72.68L277.18 72.81L277.39 72.93L277.6 73.05L277.82 73.15L278.05 73.25L278.28 73.34L278.51 73.42L278.75 73.49L279 73.55L279.25 73.61L279.51 73.65L279.77 73.68L280.03 73.71L280.3 73.72L280.58 73.73L359.94 73.73L360.21 73.72L360.48 73.71L360.74 73.68L361 73.65L361.26 73.61L361.51 73.55L361.76 73.49L362 73.42L362.23 73.34L362.47 73.25L362.69 73.15L362.91 73.05L363.12 72.93L363.33 72.81L363.53 72.68L363.72 72.54L363.91 72.4L364.09 72.24L364.27 72.08L364.43 71.92L364.6 71.74L364.75 71.56L364.89 71.37L365.03 71.18L365.16 70.98L365.28 70.77L365.4 70.56L365.5 70.34L365.6 70.11L365.69 69.88L365.77 69.65L365.84 69.41L365.9 69.16L365.96 68.91L366 68.65L366.04 68.39L366.06 68.13L366.07 67.86L366.08 67.58L366.07 67.31L366.06 67.04L366.04 66.78L366 66.52L365.96 66.26L365.9 66.01L365.84 65.76L365.77 65.52L365.69 65.29L365.6 65.05L365.5 64.83L365.4 64.61L365.28 64.4L365.16 64.19L365.03 63.99L364.89 63.8L364.75 63.61L364.6 63.43L364.43 63.25L364.27 63.09L364.09 62.92L363.91 62.77L363.72 62.63L363.53 62.49L363.33 62.36L363.12 62.24L362.91 62.12L362.69 62.02L362.47 61.92L362.23 61.83L362 61.75L361.76 61.68L361.51 61.62L361.26 61.56L361 61.52L360.74 61.48L360.48 61.46L360.21 61.45L359.94 61.44L280.58 61.44L280.3 61.45Z" id="b2yaaAAWGp"></path><path d="M331.5 163.73L333.94 163.97L336.35 164.32L338.73 164.76L341.08 165.29L343.39 165.91L345.67 166.62L347.92 167.41L350.12 168.29L352.28 169.26L354.39 170.3L356.46 171.42L358.49 172.62L360.46 173.89L362.38 175.24L364.25 176.66L366.06 178.14L367.81 179.7L369.5 181.32L371.13 183L372.7 184.74L374.19 186.55L375.62 188.41L376.98 190.33L378.27 192.3L379.48 194.32L380.61 196.39L381.67 198.51L382.65 200.68L383.54 202.89L384.34 205.14L385.06 207.43L385.69 209.77L386.23 212.13L386.68 214.54L387.03 216.97L387.28 219.44L387.43 221.93L387.49 224.45L387.37 227.04L387.04 229.73L386.51 232.52L385.78 235.39L384.87 238.34L383.78 241.35L382.54 244.42L381.15 247.55L379.62 250.71L377.97 253.91L376.2 257.13L374.32 260.37L372.36 263.61L370.32 266.85L368.21 270.08L366.04 273.29L363.82 276.48L361.58 279.62L359.3 282.72L357.02 285.77L354.74 288.75L352.47 291.66L350.22 294.48L348 297.22L345.84 299.86L343.72 302.4L341.68 304.81L339.72 307.11L337.85 309.27L336.08 311.29L334.42 313.15L332.89 314.86L331.5 316.4L330.26 317.76L329.18 318.94L328.26 319.92L327.53 320.7L327 321.27L326.67 321.62L326.56 321.73L326.45 321.62L326.12 321.27L325.58 320.7L324.85 319.92L323.94 318.94L322.86 317.76L321.61 316.4L320.22 314.86L318.69 313.15L317.04 311.29L315.27 309.27L313.4 307.11L311.43 304.81L309.39 302.4L307.28 299.86L305.11 297.22L302.9 294.48L300.65 291.66L298.38 288.75L296.09 285.77L293.81 282.72L291.54 279.62L289.29 276.48L287.08 273.29L284.91 270.08L282.8 266.85L280.75 263.61L278.79 260.37L276.92 257.13L275.15 253.91L273.49 250.71L271.97 247.55L270.57 244.42L269.33 241.35L268.25 238.34L267.34 235.39L266.61 232.52L266.07 229.73L265.74 227.04L265.63 224.45L265.68 221.93L265.83 219.44L266.08 216.97L266.42 214.54L266.86 212.13L267.39 209.77L268.01 207.43L268.72 205.14L269.52 202.89L270.4 200.68L271.36 198.51L272.4 196.39L273.53 194.32L274.72 192.3L276 190.33L277.34 188.41L278.76 186.55L280.25 184.74L281.8 183L283.42 181.32L285.1 179.7L286.85 178.14L288.65 176.66L290.51 175.24L292.43 173.89L294.4 172.62L296.42 171.42L298.49 170.3L300.61 169.26L302.78 168.29L304.99 167.41L307.24 166.62L309.54 165.91L311.87 165.29L314.24 164.76L316.64 164.32L319.08 163.97L321.54 163.73L324.04 163.58L326.56 163.53L329.04 163.58L331.5 163.73ZM323.93 194.87L322.64 195.01L321.36 195.21L320.11 195.46L318.87 195.76L317.66 196.12L316.46 196.52L315.29 196.97L314.15 197.47L313.03 198.02L311.93 198.61L310.87 199.24L309.83 199.92L308.83 200.64L307.85 201.4L306.91 202.19L306.01 203.03L305.13 203.9L304.3 204.81L303.5 205.75L302.74 206.72L302.02 207.73L301.35 208.77L300.71 209.83L300.12 210.92L299.58 212.04L299.08 213.19L298.62 214.36L298.22 215.55L297.87 216.77L297.57 218L297.32 219.26L297.12 220.53L296.98 221.82L296.89 223.13L296.86 224.45L296.89 225.77L296.98 227.08L297.12 228.37L297.32 229.65L297.57 230.9L297.87 232.14L298.22 233.35L298.62 234.55L299.08 235.72L299.58 236.86L300.12 237.98L300.71 239.08L301.35 240.14L302.02 241.18L302.74 242.18L303.5 243.16L304.3 244.1L305.13 245L306.01 245.88L306.91 246.71L307.85 247.51L308.83 248.27L309.83 248.99L310.87 249.66L311.93 250.3L313.03 250.89L314.15 251.43L315.29 251.93L316.46 252.39L317.66 252.79L318.87 253.14L320.11 253.45L321.36 253.7L322.64 253.89L323.93 254.03L325.24 254.12L326.56 254.15L327.88 254.12L329.19 254.03L330.48 253.89L331.75 253.7L333.01 253.45L334.24 253.14L335.46 252.79L336.65 252.39L337.82 251.93L338.97 251.43L340.09 250.89L341.18 250.3L342.25 249.66L343.28 248.99L344.29 248.27L345.26 247.51L346.2 246.71L347.11 245.88L347.98 245L348.82 244.1L349.61 243.16L350.37 242.18L351.09 241.18L351.77 240.14L352.4 239.08L352.99 237.98L353.54 236.86L354.04 235.72L354.49 234.55L354.89 233.35L355.25 232.14L355.55 230.9L355.8 229.65L356 228.37L356.14 227.08L356.22 225.77L356.25 224.45L356.22 223.13L356.14 221.82L356 220.53L355.8 219.26L355.55 218L355.25 216.77L354.89 215.55L354.49 214.36L354.04 213.19L353.54 212.04L352.99 210.92L352.4 209.83L351.77 208.77L351.09 207.73L350.37 206.72L349.61 205.75L348.82 204.81L347.98 203.9L347.11 203.03L346.2 202.19L345.26 201.4L344.29 200.64L343.28 199.92L342.25 199.24L341.18 198.61L340.09 198.02L338.97 197.47L337.82 196.97L336.65 196.52L335.46 196.12L334.24 195.76L333.01 195.46L331.75 195.21L330.48 195.01L329.19 194.87L327.88 194.79L326.56 194.76L325.24 194.79L323.93 194.87Z" id="c7aa8hBzk"></path></defs><g><g><g><use xlink:href="#b2yaaAAWGp" opacity="1" fill="#000100" fill-opacity="1"></use><g><use xlink:href="#b2yaaAAWGp" opacity="1" fill-opacity="0" stroke="#000000" stroke-width="1" stroke-opacity="0"></use></g></g><g><use xlink:href="#c7aa8hBzk" opacity="1" fill="#8a2a76" fill-opacity="1"></use><g><use xlink:href="#c7aa8hBzk" opacity="1" fill-opacity="0" stroke="#000000" stroke-width="1" stroke-opacity="0"></use></g></g></g></g></svg>
